X:26
T:As quick as you please
C:John Young, 1718
M:6/8
L:1/8
S:Colin Hume's website,  colinhume.com  - chords can also be printed below the stave.
Q:3/8=112
K:Am
P:A
|: c/B/ | "Am"(AE)A "E7"(BE)B | "Am"(cE)c "E7"(dE)d | "Am"(cB)A (ec)A | "E7"^G3 E2 :|
P:B
|: c/d/ | "C"(ec)e "Dm"(fd)f | "C"(ge)g "Am"(ae)d | "C"(cg)e "G"(dB)A | "Em"G3 E2e/d/ |\
"Am"(cA)c "E7"B^GE | "Am"A3- A2 :|

